packages/devextreme-scss/images/icons/generic/imagethumbnail.svg

<svg width="18" height="18" viewBox="0 0 18 18" fill="none" xmlns="http://www.w3.org/2000/svg">
<path d="M14 13L10.5 8L8.44828 10.931L7 9L4 13H14Z" fill="black"/>
<path fill-rule="evenodd" clip-rule="evenodd" d="M2 1C1.44772 1 1 1.44772 1 2V16C1 16.5523 1.44772 17 2 17H16C16.5523 17 17 16.5523 17 16V2C17 1.44772 16.5523 1 16 1H2ZM15 3H3V15H15V3Z" fill="black"/>
</svg>

<!-- Generated by IcoMoon.io -->
<svg version="1.1" xmlns="http://www.w3.org/2000/svg" width="18" height="18" viewBox="0 0 18 18">
<path d="M14 13l-3.5-5-2.052 2.931-1.448-1.931-3 4h10z"></path>
<path d="M2 1h14c0.552 0 1 0.448 1 1v14c0 0.552-0.448 1-1 1h-14c-0.552 0-1-0.448-1-1v-14c0-0.552 0.448-1 1-1zM15 3h-12v12h12v-12z"></path>
</svg>
